X:66
T:Quick Step. JBs.066
S:Jas.Blackshaw MS, 1837, N.Shropshire
A:North Shropshire
Z:T. Weatherall 2006
M:6/8
L:1/8
Q:3/8=120
R:Jig
K:C
g/e/|c2c ceg|c2c ceg|câ€™ba gfe|fdd d2 g/e/|!
c2c ceg|c2c ceg|abcâ€™ gfe|dcB c2:|!
|:e/f/|g2g gcâ€™a|gec ceg|abcâ€™ gec|!
Bdd dce|g2g gcâ€™a|gec ceg|fdB GAB|c3c2:|

